svgs/sharp-solid/jug-detergent.svg

<svg xmlns="http://www.w3.org/2000/svg" viewBox="0 0 384 512"><!--! Font Awesome Pro 6.6.0 by @fontawesome - https://fontawesome.com License - https://fontawesome.com/license (Commercial License) Copyright 2024 Fonticons, Inc. --><path d="M96 0L224 0l0 48 32 0 0 48L64 96l0-48 32 0L96 0zM0 256c0-70.7 57.3-128 128-128l256 0 0 384L0 512 0 256zm256-32l0 160 64 0 0-160-64 0z"/></svg>

<svg xmlns="http://www.w3.org/2000/svg" viewBox="0 0 384 512"><!--! Font Awesome Pro 6.5.2 by @fontawesome - https://fontawesome.com License - https://fontawesome.com/license (Commercial License) Copyright 2024 Fonticons, Inc. --><path d="M96 0H224V48h32V96H64V48H96V0zM0 256c0-70.7 57.3-128 128-128H384V512H0V256zm256-32V384h64V224H256z"/></svg>
